X:1
T:Title
%%score { 1 | 2 }
L:1/8
Q:1/4=84
M:4/4
K:G
V:1 treble nm="Grand Piano"
V:2 treble 
V:1
 B3 c B[EA]GF | G4 D2 z2 | E3 [A,DF] [G,DG][DB][DFA][DG] | [DFA]6 z2 | %4
w: J.~D.~Trapp * * * * *||||
 [DGB]3 [EGc] [DGB][CEA][B,DG][A,DF] | [B,DG]4 [B,D]2 z2 | [CE]3 [CEA] GFEF | [B,DG]6 z2 | %8
w: ||||
 [Ac]3 [FA] FDED | [B,G]4 [DB]2 z2 | [DA]3 [DF] [EG][^CE][CA][CG] | F6 z2 | B3 c B[EA]GF | %13
w: |||||
 G4 D2 z2 | E3 [CEA] [B,DG][A,DF][CDE][CDF] | [G,B,DG]6 z2 |] %16
w: |||
V:2
 [G,DG]3 [G,EG] [G,DG][K:bass][C,C][D,B,D][D,A,D] | [G,B,D]4 [G,B,]2 z2 | [C,C]3 C, B,,G,,A,,B,, | %3
 D,6 z2 | G,3 G, G,C,D,D, | G,4 G,2 z2 | C,3 A,, [D,B,D][D,A,D][D,CD][D,CD] | [G,,G,]6 z2 | %8
 [D,D]3 [D,D] [D,A,D][D,F,][D,F,C][D,A,C] | [G,,G,]4 [G,,G,]2 z2 | %10
 [A,,F,]3 [A,,A,] [A,,A,][A,,A,][A,,A,][A,,A,] | [D,A,D]6 z2 | %12
 [G,DG]3 [G,EG] [G,DG][K:bass][C,C][D,B,D][D,A,D] | [G,B,D]4 [G,B,]2 z2 | [C,C]3 A,, D,D,D,D, | %15
 G,,6 z2 |] %16

